X: 4006
T: CHARLIE
R: Reel.
%R: reel
B: James Kerr "Merry Melodies" v.3 p.04 #6
Z: 2016 John Chambers <jc:trillian.mit.edu>
M: C|
L: 1/8
K: A
uE2 |\
ABcd e2(cf) | ecaf ecBc |\
ABcd e2(cA) | EcBc A2 ::\
e2 |\
abag f2(ga) | bfbf agfe |\
[1 abag fedc | dcBA B2 :|\
[2 agfe dcBA | EcBc A2 |]

%%sep 1 1 500
%%sep 1 1 500

